X:430
T: Bumper Allen's Delight
S: "Roche Collection of Traditional Irish Music" [III/24/79]
L: 1/8
M: 4/4
R: reel
K: D
dB |: AF F2 AF F2 | AF F2 GE E2 | A2 FA B2 AF |1 EDEF EedB :|2\
EDEF D2 ||
A2 | defg afdf | gefd edBA | defg afdf | edef e2 dB |
defg afdf | gefd edBA | defg a2 ag | f2 fe dfdB ||
